!!!COM: John Williams
!!!OTL: Victory Fanfare Basic
!!!GAW: Star Wars: Episode VI: Return of the Jedi
!!!ODT: 1983
!!!OCL: Frank Lehman
!!!ENC: Claire Arthur
!!!ENC2: John McNamara
**kern	**harte	**harm	**cadence
*clefG2	*	*	*
*k[f#c#]	*k[f#c#]	*k[f#c#]	*
*D:	*D:	*D:	*
*M4/4	*M4/4	*M4/4	*
*MM160	*MM160	*MM160	*
=1-	=1-	=1-	=1-
4aa	D	I	.
4d	.	.	.
4f#	.	.	.
4d	.	.	.
=2	=2	=2	=2
4.a	D	.	.
8g#	.	.	.
4g#	E7/b7	II7d	.
4d	.	.	.
=3	=3	=3	=3
4f#	D	I	.
4a	.	.	.
4.g#	E7/b7	II7d	.
8e	.	.	.
=4	=4	=4	=4
4d	D	I	.
4dd	.	.	.
4ff#	E7/b7	II7d	.
4dd	.	.	.
=5	=5	=5	=5
4.aa	D	I	.
8gg#	.	.	.
4gg#	E7/b7	II7d	.
4dd	.	.	.
=6	=6	=6	=6
4ff#	D	I	.
4aa	.	.	.
4.gg#	E7/b7	II7d	.
8ee	.	.	.
=7	=7	=7	=7
1dd	D	I	]]
=	=	=	=
*-	*-	*-	*-
